X:5
T:Whitby Pier [for garklein etc.]
C:trad. arr. Robin Garside
Z:ABC version by Jack Campin
N:JC's version for instruments that can't go above g
M:6/8
L:1/8
Q:3/8=120
K:D
A|"D"F2A d2e|   fed    cBA|"G" BdB "D" AFD|   FAF "A"E2
A|"D"F2A d2e|   fed    cBA|"Em"Bgf "A" edc|"D"d3     d2:|
G|"D"FAF D2F|"G"GBG    e2g|"D" fed     fdA|"A"ecA    A2
G|"D"FAF D2A|"G"BAG "D"fed|"Em"Bgf "A7"edc|"D"d3     d2:|
